assets/img/user.svg

<svg width="49" height="49" viewBox="0 0 49 49" fill="none" xmlns="http://www.w3.org/2000/svg">
<circle cx="24.5" cy="24.5" r="24.5" fill="#FFDAD1"/>
<mask id="mask0_1158_3298" style="mask-type:luminance" maskUnits="userSpaceOnUse" x="16" y="27" width="17" height="9">
<path fill-rule="evenodd" clip-rule="evenodd" d="M16.124 27.2441H32.7085V35.3508H16.124V27.2441Z" fill="white"/>
</mask>
<g mask="url(#mask0_1158_3298)">
<path fill-rule="evenodd" clip-rule="evenodd" d="M24.4174 28.8932C19.9561 28.8932 17.6945 29.6979 17.6945 31.2865C17.6945 32.8893 19.9561 33.7018 24.4174 33.7018C28.8776 33.7018 31.1381 32.897 31.1381 31.3085C31.1381 29.7056 28.8776 28.8932 24.4174 28.8932ZM24.4174 35.3508C22.3663 35.3508 16.124 35.3508 16.124 31.2865C16.124 27.663 20.8575 27.2441 24.4174 27.2441C26.4685 27.2441 32.7086 27.2441 32.7086 31.3085C32.7086 34.932 27.9762 35.3508 24.4174 35.3508Z" fill="#FA7353"/>
</g>
<mask id="mask1_1158_3298" style="mask-type:luminance" maskUnits="userSpaceOnUse" x="18" y="13" width="12" height="13">
<path fill-rule="evenodd" clip-rule="evenodd" d="M18.8564 13.5068H29.9757V25.1805H18.8564V13.5068Z" fill="white"/>
</mask>
<g mask="url(#mask1_1158_3298)">
<path fill-rule="evenodd" clip-rule="evenodd" d="M24.4171 15.0767C22.1755 15.0767 20.3516 16.9907 20.3516 19.3444C20.3443 21.6905 22.1546 23.6033 24.3868 23.6121L24.4171 24.3971V23.6121C26.6577 23.6121 28.4806 21.6971 28.4806 19.3444C28.4806 16.9907 26.6577 15.0767 24.4171 15.0767ZM24.4171 25.1809H24.3836C21.3243 25.171 18.846 22.5513 18.8565 19.3411C18.8565 16.1255 21.3505 13.5068 24.4171 13.5068C27.4828 13.5068 29.9757 16.1255 29.9757 19.3444C29.9757 22.5634 27.4828 25.1809 24.4171 25.1809Z" fill="#FA7353"/>
</g>
</svg>

<svg xmlns="http://www.w3.org/2000/svg" width="49" height="49" fill="none"><circle cx="24.5" cy="24.5" r="24.5" fill="#FFDAD1"/><mask id="a" width="17" height="9" x="16" y="27" maskUnits="userSpaceOnUse" style="mask-type:luminance"><path fill="#fff" fill-rule="evenodd" d="M16.124 27.244h16.585v8.107H16.124z" clip-rule="evenodd"/></mask><g mask="url(#a)"><path fill="#FA7353" fill-rule="evenodd" d="M24.417 28.893c-4.46 0-6.722.805-6.722 2.393 0 1.603 2.261 2.416 6.722 2.416 4.46 0 6.721-.805 6.721-2.393 0-1.603-2.26-2.416-6.72-2.416m0 6.458c-2.05 0-8.293 0-8.293-4.064 0-3.624 4.734-4.043 8.293-4.043 2.051 0 8.292 0 8.292 4.064 0 3.624-4.733 4.043-8.292 4.043" clip-rule="evenodd"/></g><mask id="b" width="12" height="13" x="18" y="13" maskUnits="userSpaceOnUse" style="mask-type:luminance"><path fill="#fff" fill-rule="evenodd" d="M18.856 13.507h11.12V25.18h-11.12z" clip-rule="evenodd"/></mask><g mask="url(#b)"><path fill="#FA7353" fill-rule="evenodd" d="M24.417 15.077c-2.242 0-4.065 1.914-4.065 4.267-.008 2.346 1.803 4.26 4.035 4.268l.03.785v-.785c2.24 0 4.064-1.915 4.064-4.268s-1.823-4.267-4.064-4.267m0 10.104h-.033c-3.06-.01-5.538-2.63-5.527-5.84 0-3.216 2.494-5.834 5.56-5.834s5.559 2.618 5.559 5.837c0 3.22-2.493 5.837-5.559 5.837" clip-rule="evenodd"/></g></svg>
